src/assets/img/stripe.svg

<svg width="174" height="88" viewBox="0 0 174 88" fill="none" xmlns="http://www.w3.org/2000/svg">
<g id="stripe-5e602ea194.svg">
<path id="Vector" fill-rule="evenodd" clip-rule="evenodd" d="M92.0442 23.9281L82.9888 25.9128V18.4906L92.0442 16.5875V23.9281ZM110.831 28.0335C108.206 28.0348 105.682 29.0466 103.776 30.861L103.316 28.6316H95.3691V70.881L104.398 68.9778V58.701C105.722 59.6525 107.641 60.9847 110.804 60.9847C117.237 60.9847 123.13 55.7647 123.13 44.2916C123.076 33.77 117.129 28.0335 110.831 28.0335ZM108.668 53.0188C107.88 53.0625 107.091 52.9318 106.358 52.6359C105.624 52.34 104.965 51.886 104.425 51.306L104.398 37.8753C105.317 36.7878 106.614 36.081 108.668 36.081C111.966 36.081 114.237 39.7785 114.237 44.5091C114.237 49.4028 111.993 53.0188 108.668 53.0188ZM151.54 44.645C151.54 35.3741 147.08 28.0606 138.538 28.0606C129.942 28.0606 124.752 35.3741 124.752 44.5635C124.752 55.4928 130.888 60.9847 139.673 60.9847C143.971 60.9847 147.215 60.006 149.675 58.6466V51.3875C147.215 52.611 144.404 53.3722 140.836 53.3722C137.322 53.3722 134.24 52.1488 133.835 47.8803H151.459L151.486 46.6841L151.54 44.645ZM133.726 41.1922C133.726 37.1141 136.213 35.4013 138.484 35.4013C140.7 35.4013 143.025 37.1141 143.025 41.1922H133.726ZM92.0713 28.6588H83.0158V60.3594H92.0713V28.6588ZM72.7439 28.6588L73.3116 31.3503C75.447 27.4353 79.6639 28.2238 80.8263 28.6316V37.0053C79.6909 36.5975 76.0958 36.081 73.9603 38.8813V60.3594H64.9589V28.6588H72.7439ZM55.2817 20.7744L46.4966 22.6775L46.4695 51.7138C46.4396 52.9512 46.6607 54.1818 47.1195 55.3305C47.5783 56.4791 48.265 57.5216 49.1378 58.3943C50.0105 59.267 51.051 59.9517 52.1957 60.4064C53.3404 60.8611 54.5652 61.0764 55.7953 61.0391C58.7687 61.0391 60.9313 60.4953 62.0936 59.8428V52.475C60.9583 52.9372 55.2547 54.6228 55.2547 49.2397V36.38H62.0936V28.6588H55.2547L55.2817 20.7744ZM34.0081 35.9178C32.0889 35.9178 30.9266 36.4616 30.9266 37.8753C30.9266 39.3978 32.9269 40.0775 35.3867 40.9203C39.3873 42.2797 44.6855 44.1013 44.7125 50.8166C44.7125 57.2872 39.5495 61.0119 32.0619 61.0119C28.9533 61.0119 25.5744 60.4138 22.2225 58.9728V50.3C25.235 52.0208 28.6028 53.0165 32.0619 53.2091C34.0622 53.2091 35.5219 52.6653 35.5219 51.0069C35.5219 49.2941 33.3594 48.5056 30.7644 47.5541C26.7908 46.1403 21.79 44.3188 21.79 38.3375C21.79 31.9213 26.6556 28.0606 33.9541 28.0606C36.9545 28.0606 39.9009 28.55 42.9014 29.7463V38.256C40.1458 36.8019 37.0922 36.0108 33.9811 35.945L34.0081 35.9178Z" fill="white"/>
</g>
</svg>

<svg width="174" height="88" fill="none" xmlns="http://www.w3.org/2000/svg"><path fill-rule="evenodd" clip-rule="evenodd" d="m92.044 23.928-9.055 1.985V18.49l9.055-1.904v7.341Zm18.787 4.105a10.238 10.238 0 0 0-7.055 2.828l-.46-2.23h-7.947v42.25l9.029-1.903V58.7c1.324.952 3.243 2.284 6.406 2.284 6.433 0 12.326-5.22 12.326-16.693-.054-10.522-6.001-16.259-12.299-16.259Zm-2.163 24.986a5.377 5.377 0 0 1-4.243-1.713l-.027-13.43c.919-1.088 2.216-1.795 4.27-1.795 3.298 0 5.569 3.697 5.569 8.428 0 4.894-2.244 8.51-5.569 8.51Zm42.872-8.374c0-9.27-4.46-16.584-13.002-16.584-8.596 0-13.786 7.313-13.786 16.502 0 10.93 6.136 16.422 14.921 16.422 4.298 0 7.542-.979 10.002-2.338v-7.26c-2.46 1.224-5.271 1.985-8.839 1.985-3.514 0-6.596-1.223-7.001-5.492h17.624l.027-1.196.054-2.039Zm-17.814-3.453c0-4.078 2.487-5.79 4.758-5.79 2.216 0 4.541 1.712 4.541 5.79h-9.299ZM92.071 28.66h-9.055v31.7h9.055v-31.7Zm-19.327 0 .568 2.691c2.135-3.915 6.352-3.126 7.514-2.718v8.373c-1.135-.408-4.73-.924-6.866 1.876V60.36H64.96v-31.7h7.785Zm-17.462-7.885-8.785 1.903-.028 29.037a9.155 9.155 0 0 0 .65 3.617 9.112 9.112 0 0 0 2.019 3.063 9.05 9.05 0 0 0 3.058 2.012 9.01 9.01 0 0 0 3.6.633c2.973 0 5.135-.544 6.298-1.196v-7.368c-1.136.462-6.84 2.148-6.84-3.235V36.38h6.84v-7.721h-6.84l.028-7.885ZM34.008 35.918c-1.92 0-3.081.544-3.081 1.957 0 1.523 2 2.203 4.46 3.045 4 1.36 9.298 3.181 9.325 9.897 0 6.47-5.163 10.195-12.65 10.195-3.109 0-6.488-.598-9.84-2.04V50.3a22.34 22.34 0 0 0 9.84 2.91c2 0 3.46-.545 3.46-2.203 0-1.713-2.163-2.501-4.758-3.453-3.973-1.414-8.974-3.235-8.974-9.217 0-6.416 4.866-10.276 12.164-10.276 3 0 5.947.489 8.947 1.685v8.51a20.02 20.02 0 0 0-8.92-2.311l.027-.027Z" fill="#fff"/></svg>
